X: 14
T:Highland Mary, Longborough
M:4/4
L:1/8
A:Longborough
P:A(AB2)5A
K:G
P:A
G2AG F2D2|G2AB c2GB|d2e2 dcBA|G3F D4|
G2AG F2D2|G2AB c2GB|d3e  dcBA|G3F G4||
P:B
e2d2 c2B2|cBAB c2Bc|d3e  dcBA|G3F D4|
G2AG F2D2|G2AB c2GB|d3e  dcBA|G3F G4||
